X: 573
T: The Fairies Hornpipe
B: good tune book
B: tunes
M:4/4
R: hornpipe
Q: 1/4=100
K:Gmajor
V:1 
BAF|GFGA BdcB|AGAB G2Bc|dgfg edcB|cedB A2Bc|
 dggf g2fe|dedc B2AG|ABcA dcAF|G2GF G2:|
 |:Bc|dggf g2fe|dedc B2AG|ABcd edcB|Add^c d2B=c|
 dggf g2fe|dedc B2AG|ABcA dcAF|G2GF G2:|
% abcbook-tune_id 63dce33ea0522756c36372fd
% abcbook-tune_composer_id 
% abcbook-link-0 https://www.youtube.com/watch?v=3AHBYOoHf2I
% abcbook-boost 0
% abcbook-difficulty 0
% abcbook-tags good tune book
% abcbook-tablature 
% abcbook-transpose 
% abcbook-tuning 
% abcbook-lastupdated 1675480366996
% abcbook-soundfonts 
% abcbook-repeats 1


